public/logos/HW.svg

<?xml version="1.0" encoding="UTF-8"?>
<svg xmlns="http://www.w3.org/2000/svg" xmlns:xlink="http://www.w3.org/1999/xlink" width="176pt" height="57.95pt" viewBox="0 0 176 57.95" version="1.1">
<defs>
<clipPath id="clip1">
  <path d="M 37 0 L 95 0 L 95 57.949219 L 37 57.949219 Z M 37 0 "/>
</clipPath>
</defs>
<g id="surface1">
<path style=" stroke:none;fill-rule:nonzero;fill:rgb(13.583374%,22.05658%,36.044312%);fill-opacity:1;" d="M 84.015625 16.933594 C 83.605469 18.566406 82.535156 19.953125 81.066406 20.765625 C 79.609375 21.570312 78.230469 22.503906 76.945312 23.558594 C 75.691406 24.507812 74.355469 25.351562 72.957031 26.074219 C 72.332031 26.421875 71.734375 26.8125 71.089844 27.136719 C 68.457031 28.363281 68.210938 31.226562 69.179688 33.367188 C 69.835938 34.800781 70.640625 36.164062 71.578125 37.4375 C 73.445312 40.070312 75.539062 42.542969 77.832031 44.820312 C 77.925781 45.019531 77.910156 45.253906 77.785156 45.4375 C 77.195312 45.40625 76.621094 45.222656 76.117188 44.90625 C 73.757812 43.429688 72.058594 41.335938 70.300781 39.28125 C 69.761719 38.671875 69.296875 37.996094 68.929688 37.273438 C 68.054688 35.449219 66.367188 34.503906 64.726562 33.582031 C 62.996094 32.578125 61.507812 31.199219 60.371094 29.550781 C 58.710938 27.226562 57.132812 24.847656 55.523438 22.488281 C 54.972656 21.589844 54.113281 20.925781 53.109375 20.625 C 51.910156 20.375 50.945312 19.484375 50.597656 18.308594 C 50.40625 17.570312 49.652344 17.128906 49.46875 16.257812 C 50.574219 16.371094 51.667969 16.566406 52.746094 16.847656 C 53.871094 17.140625 54.808594 17.914062 55.308594 18.964844 C 55.667969 19.691406 56.097656 20.378906 56.59375 21.019531 C 57.757812 22.496094 59.472656 23.152344 61.089844 23.890625 C 61.6875 24.164062 62.171875 24.6875 63.042969 24.703125 C 63.273438 22.308594 63.648438 19.910156 65.148438 17.871094 C 66.621094 15.769531 68.457031 13.945312 70.566406 12.484375 L 69.828125 19.128906 C 68.351562 20.796875 67.789062 23.078125 66.964844 25.382812 C 67.546875 25.472656 68.140625 25.257812 68.53125 24.8125 C 69.636719 23.773438 70.742188 22.761719 71.882812 21.71875 C 73.433594 20.292969 75.171875 19.078125 77.046875 18.117188 C 78.085938 17.515625 79.289062 17.253906 80.480469 17.378906 C 81.230469 17.457031 81.988281 17.363281 82.695312 17.113281 C 83.109375 16.921875 83.570312 16.859375 84.015625 16.933594 "/>
<g clip-path="url(#clip1)" clip-rule="nonzero">
<path style=" stroke:none;fill-rule:nonzero;fill:rgb(94.242859%,31.77948%,18.743896%);fill-opacity:1;" d="M 92.417969 37.058594 C 87.972656 51.59375 72.585938 59.773438 58.050781 55.328125 C 49.304688 52.652344 42.457031 45.804688 39.78125 37.058594 L 38.425781 37.058594 C 42.792969 52.347656 58.726562 61.203125 74.015625 56.835938 C 83.582031 54.101562 91.058594 46.625 93.789062 37.058594 Z M 39.042969 23.933594 C 41.839844 8.992188 56.214844 -0.855469 71.15625 1.941406 C 82.324219 4.027344 91.058594 12.765625 93.148438 23.933594 L 94.492188 23.933594 C 91.808594 8.261719 76.925781 -2.265625 61.253906 0.417969 C 49.222656 2.480469 39.800781 11.902344 37.738281 23.933594 L 39.042969 23.933594 "/>
</g>
<path style=" stroke:none;fill-rule:nonzero;fill:rgb(13.583374%,22.05658%,36.044312%);fill-opacity:1;" d="M 171.734375 30.378906 C 172.8125 30.378906 173.425781 29.800781 173.425781 28.953125 C 173.425781 28.007812 172.765625 27.523438 171.6875 27.523438 L 169.472656 27.523438 L 169.472656 30.414062 Z M 167.304688 25.5 L 171.894531 25.5 C 172.976562 25.425781 174.042969 25.792969 174.847656 26.519531 C 175.429688 27.136719 175.734375 27.964844 175.695312 28.8125 C 175.761719 30.214844 174.882812 31.488281 173.550781 31.921875 L 176 35.511719 L 173.425781 35.511719 L 171.269531 32.328125 L 169.53125 32.328125 L 169.53125 35.539062 L 167.316406 35.539062 Z M 162.585938 25.5 L 164.800781 25.5 L 164.800781 35.539062 L 162.585938 35.539062 Z M 156.925781 31.332031 L 155.597656 28.074219 L 154.289062 31.339844 Z M 154.605469 25.425781 L 156.636719 25.425781 L 160.933594 35.539062 L 158.621094 35.539062 L 157.707031 33.324219 L 153.460938 33.324219 L 152.546875 35.539062 L 150.304688 35.539062 Z M 139.90625 27.535156 L 136.851562 27.535156 L 136.851562 25.5 L 145.171875 25.5 L 145.171875 27.535156 L 142.113281 27.535156 L 142.113281 35.539062 L 139.898438 35.539062 Z M 126.671875 25.5 L 128.886719 25.5 L 128.886719 29.472656 L 132.953125 29.472656 L 132.953125 25.5 L 135.167969 25.5 L 135.167969 35.539062 L 132.953125 35.539062 L 132.953125 31.507812 L 128.886719 31.507812 L 128.886719 35.539062 L 126.671875 35.539062 Z M 114.992188 30.546875 C 114.992188 27.695312 117.304688 25.378906 120.160156 25.378906 C 120.191406 25.378906 120.226562 25.378906 120.257812 25.382812 C 121.695312 25.296875 123.109375 25.78125 124.199219 26.722656 L 122.804688 28.40625 C 122.097656 27.734375 121.15625 27.367188 120.183594 27.390625 C 118.523438 27.457031 117.234375 28.851562 117.296875 30.511719 C 117.199219 32.171875 118.464844 33.597656 120.125 33.695312 C 120.195312 33.699219 120.261719 33.703125 120.328125 33.699219 C 121.070312 33.722656 121.800781 33.511719 122.410156 33.097656 L 122.410156 31.664062 L 120.195312 31.664062 L 120.195312 29.757812 L 124.554688 29.757812 L 124.554688 34.105469 C 123.363281 35.140625 121.839844 35.707031 120.265625 35.703125 C 117.496094 35.839844 115.136719 33.710938 114.996094 30.941406 C 114.992188 30.808594 114.988281 30.679688 114.992188 30.546875 Z M 110.734375 25.5 L 112.949219 25.5 L 112.949219 35.539062 L 110.734375 35.539062 Z M 104.679688 30.378906 C 105.757812 30.378906 106.378906 29.800781 106.378906 28.953125 C 106.378906 28.007812 105.714844 27.523438 104.644531 27.523438 L 102.429688 27.523438 L 102.429688 30.414062 Z M 100.25 25.5 L 104.828125 25.5 C 105.910156 25.425781 106.976562 25.792969 107.78125 26.519531 C 108.367188 27.136719 108.679688 27.964844 108.644531 28.8125 C 108.710938 30.21875 107.824219 31.488281 106.488281 31.921875 L 108.9375 35.511719 L 106.363281 35.511719 L 104.207031 32.296875 L 102.472656 32.296875 L 102.472656 35.511719 L 100.257812 35.511719 Z M 83.417969 25.5 L 85.789062 25.5 L 87.847656 32.296875 L 90.0625 25.46875 L 91.953125 25.46875 L 94.207031 32.296875 L 96.285156 25.5 L 98.589844 25.5 L 95.230469 35.582031 L 93.3125 35.582031 L 91.042969 29.019531 L 88.742188 35.582031 L 86.824219 35.582031 Z M 43.164062 25.5 L 45.378906 25.5 L 45.378906 29.472656 L 49.460938 29.472656 L 49.460938 25.5 L 51.675781 25.5 L 51.675781 35.539062 L 49.460938 35.539062 L 49.460938 31.507812 L 45.378906 31.507812 L 45.378906 35.539062 L 43.164062 35.539062 Z M 36.210938 27.535156 L 33.160156 27.535156 L 33.160156 25.5 L 41.472656 25.5 L 41.472656 27.535156 L 38.425781 27.535156 L 38.425781 35.539062 L 36.210938 35.539062 Z M 27.941406 30.378906 C 29.019531 30.378906 29.632812 29.800781 29.632812 28.953125 C 29.632812 28.007812 28.976562 27.523438 27.898438 27.523438 L 25.683594 27.523438 L 25.683594 30.414062 Z M 23.511719 25.5 L 28.097656 25.5 C 29.179688 25.425781 30.242188 25.792969 31.050781 26.519531 C 31.628906 27.136719 31.9375 27.964844 31.90625 28.8125 C 31.972656 30.214844 31.09375 31.488281 29.757812 31.921875 L 32.207031 35.511719 L 29.601562 35.511719 L 27.453125 32.296875 L 25.71875 32.296875 L 25.71875 35.511719 L 23.503906 35.511719 Z M 19.238281 30.546875 C 19.3125 28.867188 18.007812 27.441406 16.324219 27.367188 C 16.296875 27.367188 16.269531 27.367188 16.242188 27.367188 C 14.585938 27.355469 13.234375 28.691406 13.226562 30.347656 C 13.226562 30.394531 13.226562 30.441406 13.230469 30.488281 C 13.15625 32.171875 14.460938 33.59375 16.140625 33.667969 C 16.175781 33.667969 16.207031 33.671875 16.242188 33.671875 C 17.894531 33.671875 19.238281 32.332031 19.242188 30.675781 C 19.242188 30.632812 19.238281 30.589844 19.238281 30.546875 Z M 10.882812 30.546875 C 10.878906 27.695312 13.191406 25.378906 16.046875 25.378906 C 16.105469 25.378906 16.164062 25.378906 16.226562 25.382812 C 19.078125 25.296875 21.460938 27.539062 21.546875 30.390625 C 21.546875 30.445312 21.546875 30.496094 21.546875 30.546875 C 21.550781 33.402344 19.238281 35.71875 16.382812 35.71875 C 16.324219 35.71875 16.265625 35.71875 16.203125 35.714844 C 13.351562 35.800781 10.96875 33.558594 10.882812 30.707031 C 10.882812 30.652344 10.882812 30.601562 10.882812 30.546875 Z M 0 25.5 L 2.039062 25.5 L 6.738281 31.675781 L 6.738281 25.5 L 8.917969 25.5 L 8.917969 35.539062 L 7.042969 35.539062 L 2.214844 29.152344 L 2.214844 35.539062 L 0 35.539062 L 0 25.5 "/>
</g>
</svg>

<svg xmlns="http://www.w3.org/2000/svg" width="176pt" height="77.267" viewBox="0 0 176 57.95"><defs><clipPath id="a"><path d="M37 0h58v57.95H37Zm0 0"/></clipPath></defs><path d="M84.016 16.934a6.07 6.07 0 0 1-2.95 3.832 27.3 27.3 0 0 0-4.12 2.793 27.6 27.6 0 0 1-3.989 2.515c-.625.348-1.223.738-1.867 1.063-2.633 1.226-2.88 4.09-1.91 6.23a23 23 0 0 0 2.398 4.07 56.4 56.4 0 0 0 6.254 7.383c.094.2.078.434-.047.617a3.5 3.5 0 0 1-1.668-.53c-2.36-1.477-4.058-3.571-5.816-5.626a9.6 9.6 0 0 1-1.371-2.008c-.875-1.824-2.563-2.77-4.203-3.691a13.6 13.6 0 0 1-4.356-4.031c-1.66-2.324-3.238-4.703-4.848-7.063a4.27 4.27 0 0 0-2.414-1.863 3.33 3.33 0 0 1-2.511-2.316c-.192-.739-.946-1.18-1.13-2.051q1.66.168 3.278.59a3.93 3.93 0 0 1 2.563 2.117c.359.726.789 1.414 1.285 2.055 1.164 1.476 2.879 2.132 4.496 2.87.597.274 1.082.797 1.953.813.23-2.394.605-4.793 2.105-6.832a21.7 21.7 0 0 1 5.418-5.387l-.738 6.645c-1.476 1.668-2.039 3.95-2.863 6.254a1.74 1.74 0 0 0 1.566-.57c1.106-1.04 2.211-2.051 3.352-3.094a23.4 23.4 0 0 1 5.164-3.602 5.68 5.68 0 0 1 3.433-.738 5.1 5.1 0 0 0 2.215-.266 2.26 2.26 0 0 1 1.32-.18" style="stroke:none;fill-rule:nonzero;fill:#23385c;fill-opacity:1"/><g clip-path="url(#a)"><path d="M92.418 37.059c-4.445 14.535-19.832 22.714-34.367 18.27a27.53 27.53 0 0 1-18.27-18.27h-1.355c4.367 15.289 20.3 24.144 35.59 19.777a28.79 28.79 0 0 0 19.773-19.777ZM39.043 23.934C41.84 8.992 56.215-.856 71.156 1.94a27.52 27.52 0 0 1 21.992 21.993h1.344C91.81 8.262 76.926-2.266 61.254.418a28.79 28.79 0 0 0-23.516 23.516z" style="stroke:none;fill-rule:nonzero;fill:#f05130;fill-opacity:1"/></g><path d="M171.734 30.379c1.078 0 1.692-.578 1.692-1.426 0-.945-.66-1.43-1.738-1.43h-2.215v2.891Zm-4.43-4.879h4.59a4 4 0 0 1 2.954 1.02c.582.617.886 1.445.847 2.293a3.114 3.114 0 0 1-2.144 3.109l2.449 3.59h-2.574l-2.156-3.184h-1.739v3.211h-2.215Zm-4.718 0h2.215v10.04h-2.215Zm-5.66 5.832-1.328-3.258-1.309 3.266Zm-2.32-5.906h2.03l4.298 10.113h-2.313l-.914-2.215h-4.246l-.914 2.215h-2.242Zm-14.7 2.11h-3.054V25.5h8.32v2.035h-3.059v8.004h-2.215ZM126.672 25.5h2.215v3.973h4.066V25.5h2.215v10.04h-2.215v-4.032h-4.066v4.031h-2.215Zm-11.68 5.047a5.17 5.17 0 0 1 5.168-5.168c.031 0 .067 0 .098.004a5.53 5.53 0 0 1 3.941 1.34l-1.394 1.683a3.68 3.68 0 0 0-2.621-1.015 3.007 3.007 0 0 0-2.887 3.12 3.01 3.01 0 0 0 2.828 3.184c.07.004.137.008.203.004a3.5 3.5 0 0 0 2.082-.601v-1.434h-2.215v-1.906h4.36v4.347a6.5 6.5 0 0 1-4.29 1.598 5.025 5.025 0 0 1-5.269-4.762q-.008-.196-.004-.394m-4.258-5.047h2.215v10.04h-2.215Zm-6.054 4.879c1.078 0 1.699-.578 1.699-1.426 0-.945-.664-1.43-1.734-1.43h-2.215v2.891Zm-4.43-4.879h4.578a4 4 0 0 1 2.953 1.02c.586.617.899 1.445.864 2.293a3.116 3.116 0 0 1-2.157 3.109l2.45 3.59h-2.575l-2.156-3.215h-1.734v3.215h-2.215Zm-16.832 0h2.371l2.059 6.797 2.215-6.828h1.89l2.254 6.828 2.078-6.797h2.305l-3.36 10.082h-1.918l-2.269-6.562-2.3 6.562h-1.919Zm-40.254 0h2.215v3.973h4.082V25.5h2.215v10.04H49.46v-4.032h-4.082v4.031h-2.215Zm-6.953 2.035h-3.05V25.5h8.312v2.035h-3.047v8.004H36.21Zm-8.27 2.844c1.079 0 1.692-.578 1.692-1.426 0-.945-.656-1.43-1.735-1.43h-2.214v2.891Zm-4.43-4.879h4.587a4 4 0 0 1 2.953 1.02c.578.617.887 1.445.855 2.293a3.11 3.11 0 0 1-2.148 3.109l2.449 3.59h-2.605l-2.149-3.215H25.72v3.215h-2.215Zm-4.273 5.047a3.05 3.05 0 0 0-2.914-3.18h-.082a2.995 2.995 0 0 0-3.012 3.121 3.05 3.05 0 0 0 2.91 3.18c.036 0 .067.004.102.004a3 3 0 0 0 3-2.996q-.002-.064-.004-.13m-8.355 0a5.163 5.163 0 0 1 5.344-5.164 5.167 5.167 0 0 1 5.32 5.008v.156a5.164 5.164 0 0 1-5.164 5.172q-.087.001-.18-.004a5.167 5.167 0 0 1-5.32-5.008zM0 25.5h2.04l4.698 6.176V25.5h2.18v10.04H7.043l-4.828-6.388v6.387H0z" style="stroke:none;fill-rule:nonzero;fill:#23385c;fill-opacity:1"/></svg>
